src/assets/images/champagnePartyAlcohol.svg

<svg width="48" height="48" viewBox="0 0 48 48" fill="none" xmlns="http://www.w3.org/2000/svg">
<path d="M25.8748 8.39364L14.4317 5.25L8.36764 20.7381C6.83993 24.6399 9.0993 28.9667 13.2617 30.1103C17.4241 31.2536 21.7119 28.7256 22.5497 24.6341L25.8748 8.39364Z" stroke="#C19F74" stroke-width="3"/>
<path d="M5.25 40.1953L14.5461 42.7492" stroke="#C19F74" stroke-width="3"/>
<path d="M13.266 30.1074L9.90186 41.4757" stroke="#C19F74" stroke-width="3"/>
<path d="M24.2123 16.5142L11.3921 13.0137" stroke="#C19F74" stroke-width="3"/>
<path d="M30.5624 6.07569L33.568 5.25L39.6319 20.7381C41.1597 24.6399 38.9003 28.9667 34.738 30.1103C31.7837 30.9218 28.7661 29.8837 26.9639 27.75" stroke="#C19F74" stroke-width="3"/>
<path d="M42.7502 40.1953L33.4541 42.7492" stroke="#C19F74" stroke-width="3"/>
<path d="M34.7344 30.1074L38.0985 41.4757" stroke="#C19F74" stroke-width="3"/>
<path d="M36.6077 13.0137L28.6875 15.1763" stroke="#C19F74" stroke-width="3"/>
</svg>

<svg xmlns="http://www.w3.org/2000/svg" width="48" height="48" fill="none"><path stroke="#C19F74" stroke-width="3" d="M25.875 8.394 14.432 5.25 8.368 20.738c-1.528 3.902.731 8.229 4.894 9.372 4.162 1.144 8.45-1.384 9.288-5.476zM5.25 40.195l9.296 2.554M13.266 30.107 9.902 41.476M24.212 16.514l-12.82-3.5M30.562 6.076l3.006-.826 6.064 15.488c1.528 3.902-.732 8.229-4.894 9.372-2.954.812-5.972-.226-7.774-2.36M42.75 40.195l-9.296 2.554M34.734 30.107l3.364 11.369M36.608 13.014l-7.92 2.162"/></svg>
